public/svgs/regular/file-lines.svg

<svg xmlns="http://www.w3.org/2000/svg" viewBox="0 0 384 512"><!--! Font Awesome Pro 6.0.0-alpha3 by @fontawesome - https://fontawesome.com License - https://fontawesome.com/license (Commercial License) --><path d="M365.3 93.38l-74.63-74.64C278.6 6.742 262.3 0 245.4 0L64-.0001c-35.35 0-64 28.65-64 64l.0065 384c0 35.34 28.65 64 64 64H320c35.2 0 64-28.8 64-64V138.6C384 121.7 377.3 105.4 365.3 93.38zM336 448c0 8.836-7.164 16-16 16H64.02c-8.838 0-16-7.164-16-16L48 64.13c0-8.836 7.164-16 16-16h160L224 128c0 17.67 14.33 32 32 32h79.1V448zM96 280C96 293.3 106.8 304 120 304h144C277.3 304 288 293.3 288 280S277.3 256 264 256h-144C106.8 256 96 266.8 96 280zM264 352h-144C106.8 352 96 362.8 96 376s10.75 24 24 24h144c13.25 0 24-10.75 24-24S277.3 352 264 352z"/></svg>

<svg xmlns="http://www.w3.org/2000/svg" viewBox="0 0 384 512"><!--! Font Awesome Free 6.4.0 by @fontawesome - https://fontawesome.com License - https://fontawesome.com/license/free (Icons: CC BY 4.0, Fonts: SIL OFL 1.1, Code: MIT License) Copyright 2023 Fonticons, Inc. --><path d="M64 464c-8.8 0-16-7.2-16-16V64c0-8.8 7.2-16 16-16H224v80c0 17.7 14.3 32 32 32h80V448c0 8.8-7.2 16-16 16H64zM64 0C28.7 0 0 28.7 0 64V448c0 35.3 28.7 64 64 64H320c35.3 0 64-28.7 64-64V154.5c0-17-6.7-33.3-18.7-45.3L274.7 18.7C262.7 6.7 246.5 0 229.5 0H64zm56 256c-13.3 0-24 10.7-24 24s10.7 24 24 24H264c13.3 0 24-10.7 24-24s-10.7-24-24-24H120zm0 96c-13.3 0-24 10.7-24 24s10.7 24 24 24H264c13.3 0 24-10.7 24-24s-10.7-24-24-24H120z"/></svg>
